X:1
T:Title
%%score { ( 1 2 ) | ( 3 4 5 ) }
L:1/8
Q:1/4=100
M:6/8
K:Bb
V:1 treble nm="Grand Piano"
V:2 treble 
V:3 bass 
V:4 bass 
V:5 bass 
V:1
 [F,DF]2 [DA] B>A[DB] | [_DA]2 [DG] .[F,=DF]3 | [F,DF]2 [DA] B>A[DB] | [=Ed]2 [Ec] .[_Ec]3 | %4
w: Florence~W.~Williams * * * *||||
 [B,DF]2 [DA] B>A[DB] | [_DA]2 [DG] .[=DF]3 | [C=E]2 [EG] [Ec]2 [EB] | [C=EA]2 [B,EG] .[A,F]3 | %8
w: ||||
 F2 [Ge] [Fd]2 [Ec] | [Dc]2 [DG] F2 G | [EF]2 [EG] [EA]2 [EG] | [DG]2 [_D=E] .F3 | %12
w: ||||
 [EF]2 [Ge] [Fd]2 [Ec] | [Dc]2 [DG] [DF]2 [B,DF] | [B,EG]2 [B,EG] [EA]2 [EA] | [DB]6 |] %16
w: ||||
V:2
 z3 .D3 | x6 | z3 .D3 | x6 | z3 .D3 | x6 | x6 | x6 | x6 | z3 D3 | x6 | x6 | x6 | x6 | x6 | x6 |] %16
V:3
 z z/ G/[B,,F,] [B,,F,]2 [B,,F,] | [B,,=E,]2 [B,,E,] .B,,3 | z z/ G/[B,,F,] [B,,F,]2 [B,,F,] | %3
 [C,B,]2 [C,B,] .[F,A,]3 | z z/ G/[B,,F,] [B,,F,]2 [B,,F,] | [B,,=E,]2 [B,,E,] .[B,,F,]3 | %6
 [C,B,]2 [C,B,] [C,G,]2 [C,G,] | z z/[K:treble] B/[K:bass]C, .F,3 | F,,2 F, A,2 F, | %9
 z z/[K:treble] B/[K:bass]F, B,2 F, | F,,2 F, C2 F, | z3 .D3 | F,,2 F, A,2 F, | %13
 z z/[K:treble] B/[K:bass]F, B,2 B,, | E,2 E, F,2 [F,,F,] | [B,,F,]6 |] %16
V:4
 .B,,3 z3 | x6 | .B,,3 z3 | x6 | .B,,3 z3 | x6 | x6 | .C,3[K:treble][K:bass] z3 | x6 | %9
 .B,,3[K:treble][K:bass] z3 | x6 | z2 B,- B, z z | x6 | .B,,3[K:treble][K:bass] z3 | x6 | x6 |] %16
V:5
 x6 | x6 | x6 | x6 | x6 | x6 | x6 | x3/2[K:treble] x/[K:bass] x4 | x6 | %9
 x3/2[K:treble] x/[K:bass] x4 | x6 | .B,,3 z F,2 | x6 | x3/2[K:treble] x/[K:bass] x4 | x6 | x6 |] %16

